img/icon-inter-exchange.svg

<svg width="130" height="130" viewBox="0 0 130 130" fill="none" xmlns="http://www.w3.org/2000/svg">
<g filter="url(#filter0_d_585_2027)">
<path fill-rule="evenodd" clip-rule="evenodd" d="M51.5397 15.2125C41.8966 16.4409 32.7264 21.0229 26.1659 27.8903C18.4727 35.9434 14.6061 46.2419 15.0317 57.546C15.2664 63.7777 16.6046 68.8939 19.4814 74.5591C21.6446 78.8184 24.1384 82.1647 27.7492 85.6534C31.1837 88.9713 35.0168 91.5901 39.1966 93.4743C41.0661 94.3169 41.3868 94.401 42.748 94.4041C44.1254 94.4075 44.3041 94.3601 44.9952 93.8096C46.4878 92.6211 46.9964 90.7303 46.255 89.1277C45.7286 87.9898 44.9784 87.3838 43.1081 86.5858C36.1819 83.6302 30.2189 78.2488 26.7479 71.8214C22.9028 64.7015 21.9342 55.5674 24.1452 47.2805C26.3621 38.9717 31.5192 31.9478 38.6155 27.572C45.42 23.3758 54.5175 21.7905 62.5045 23.4088C75.5283 26.0478 85.6523 35.9848 88.4365 48.8619C88.9909 51.4254 89.5042 52.2827 90.8926 52.9625C91.8069 53.4101 92.1325 53.4735 92.9923 53.3716C94.2845 53.2185 95.3907 52.457 96.018 51.2884C96.4235 50.5331 96.4758 50.2283 96.3875 49.1373C96.1569 46.2941 94.6122 41.515 92.6521 37.5803C90.5602 33.3812 88.084 30.026 84.506 26.5422C78.2381 20.4396 71.1646 16.835 62.6464 15.4027C60.0097 14.9594 54.294 14.8615 51.5397 15.2125ZM54.8739 30.7692C53.9958 31.0381 52.7528 32.3305 52.5017 33.2359C52.3877 33.6462 52.2924 34.686 52.2897 35.5464L52.2846 37.1108L50.8718 37.7739C48.897 38.7007 46.6996 40.9024 45.7481 42.9072C42.4359 49.887 46.3439 58.0242 53.7636 59.5972C54.5128 59.756 55.4674 59.8874 55.8848 59.8893C57.8285 59.8979 59.4342 61.0157 59.9014 62.6853C60.6626 65.4057 58.6455 67.9013 55.8719 67.671C54.4794 67.5556 53.4015 66.7935 52.5376 65.3138C51.6003 63.7085 50.6463 63.1193 48.9847 63.1193C47.4455 63.1193 46.4942 63.6152 45.6842 64.8401C44.9157 66.0021 44.9399 67.7846 45.7444 69.2792C46.6408 70.9445 49.1764 73.3823 50.8473 74.1852L52.2357 74.8524L52.318 76.7141C52.4137 78.8802 52.8022 79.7195 54.1097 80.5854C54.7696 81.0225 55.1188 81.1101 56.2006 81.1101C57.2824 81.1101 57.6316 81.0225 58.2915 80.5854C59.5986 79.7199 59.9872 78.8802 60.084 76.7141L60.167 74.8524L61.7017 74.1076C64.4086 72.794 66.5092 70.2116 67.4585 67.0303C67.9748 65.3007 67.9312 62.3707 67.3614 60.4793C66.2034 56.6365 63.2474 53.6608 59.5124 52.5774C58.9267 52.4077 57.6966 52.193 56.7784 52.1003C54.7585 51.8965 53.7945 51.4704 53.0609 50.4569C51.7255 48.6122 52.3133 45.8221 54.2449 44.8359C55.3908 44.251 56.4601 44.1452 57.4405 44.5199C58.4048 44.8883 59.036 45.5115 59.7946 46.8438C60.0884 47.3601 60.6856 48.0156 61.1312 48.3105C61.8053 48.7569 62.1483 48.844 63.2353 48.844C64.3171 48.844 64.6663 48.7563 65.3262 48.3193C66.5463 47.5113 67.0458 46.5556 67.0454 45.0307C67.045 43.9168 66.9504 43.5904 66.2808 42.3907C65.241 40.5279 63.2742 38.615 61.5325 37.7724L60.1649 37.1108L60.0847 35.1545C59.9929 32.9074 59.6195 32.0617 58.3472 31.2192C57.509 30.664 55.8985 30.4554 54.8739 30.7692ZM92.1972 60.8921C91.2717 61.1643 90.0713 62.4452 89.8012 63.4492C89.3174 65.2473 90.1102 67.1768 91.6674 67.9907C92.3857 68.3661 92.8279 68.4039 97.1275 68.4582L101.806 68.5173L96.054 74.2759L90.3021 80.0346L80.2371 80.0357C73.6446 80.0363 69.9027 80.1096 69.3907 80.2479C68.7187 80.4296 66.6409 82.4252 54.5787 94.4734C46.862 102.181 40.3548 108.795 40.1184 109.172C39.4636 110.214 39.5089 112.155 40.2128 113.22C41.1847 114.69 42.8993 115.315 44.6734 114.847C45.4744 114.636 46.7168 113.451 58.9396 101.236L72.3283 87.8567H82.5416C91.3127 87.8567 92.8573 87.814 93.4812 87.5543C93.9672 87.3519 96.3543 85.108 100.692 80.7763L107.175 74.3006L107.238 78.8135L107.3 83.3265L107.886 84.1564C109.306 86.1667 112.137 86.4381 113.846 84.7278C115.026 83.5477 115.044 83.3533 114.979 72.7846L114.921 63.2857L114.397 62.4933C114.109 62.0574 113.537 61.4919 113.127 61.2367L112.381 60.7726L102.61 60.7378C96.7865 60.7171 92.5804 60.7795 92.1972 60.8921ZM78.5185 93.9327C77.6122 94.2101 76.3913 95.499 76.1361 96.4475C75.9956 96.969 75.9424 99.7744 75.9791 104.72C76.0301 111.6 76.0643 112.263 76.4042 112.947C76.8729 113.892 77.7421 114.557 78.9204 114.872C80.6105 115.324 82.5252 114.48 83.2861 112.947C83.6302 112.254 83.6556 111.658 83.6556 104.283V96.3632L83.1919 95.6168C82.2704 94.1333 80.2457 93.4037 78.5185 93.9327ZM94.1513 93.9327C93.2449 94.2101 92.024 95.499 91.7688 96.4475C91.6283 96.969 91.5752 99.7744 91.6119 104.72C91.6629 111.6 91.6971 112.263 92.0369 112.947C92.5057 113.892 93.3749 114.557 94.5532 114.872C96.2433 115.324 98.1579 114.48 98.9189 112.947C99.263 112.254 99.2884 111.658 99.2884 104.283V96.3632L98.8247 95.6168C97.9031 94.1333 95.8785 93.4037 94.1513 93.9327ZM109.784 93.9327C108.878 94.2101 107.657 95.499 107.402 96.4475C107.261 96.969 107.208 99.7744 107.245 104.72C107.296 111.6 107.33 112.263 107.67 112.947C108.138 113.892 109.008 114.557 110.186 114.872C111.876 115.324 113.791 114.48 114.552 112.947C114.896 112.254 114.921 111.658 114.921 104.283V96.3632L114.457 95.6168C113.536 94.1333 111.511 93.4037 109.784 93.9327ZM62.8857 105.861C61.9571 106.146 60.7587 107.427 60.4912 108.421C60.1777 109.586 60.3329 112.033 60.7784 112.947C61.2371 113.889 62.1061 114.556 63.2877 114.872C64.9778 115.324 66.8924 114.48 67.6533 112.947C67.9416 112.367 68.0229 111.773 68.0229 110.247C68.0229 108.529 67.9666 108.201 67.5591 107.545C66.6376 106.062 64.613 105.332 62.8857 105.861Z" fill="#06FF79"/>
</g>
<defs>
<filter id="filter0_d_585_2027" x="0" y="0" width="130" height="130" filterUnits="userSpaceOnUse" color-interpolation-filters="sRGB">
<feFlood flood-opacity="0" result="BackgroundImageFix"/>
<feColorMatrix in="SourceAlpha" type="matrix" values="0 0 0 0 0 0 0 0 0 0 0 0 0 0 0 0 0 0 127 0" result="hardAlpha"/>
<feOffset/>
<feGaussianBlur stdDeviation="7.5"/>
<feComposite in2="hardAlpha" operator="out"/>
<feColorMatrix type="matrix" values="0 0 0 0 0.0463889 0 0 0 0 0.695833 0 0 0 0 0.346333 0 0 0 0.8 0"/>
<feBlend mode="normal" in2="BackgroundImageFix" result="effect1_dropShadow_585_2027"/>
<feBlend mode="normal" in="SourceGraphic" in2="effect1_dropShadow_585_2027" result="shape"/>
</filter>
</defs>
</svg>

<svg width="130" height="130" fill="none" xmlns="http://www.w3.org/2000/svg"><g filter="url(#filter0_d_585_2027)"><path fill-rule="evenodd" clip-rule="evenodd" d="M51.54 15.213c-9.643 1.228-18.814 5.81-25.374 12.677-7.693 8.053-11.56 18.352-11.134 29.656.234 6.232 1.573 11.348 4.45 17.013 2.163 4.26 4.656 7.606 8.267 11.094 3.435 3.318 7.268 5.937 11.448 7.821 1.87.843 2.19.927 3.551.93 1.377.004 1.556-.044 2.247-.594 1.493-1.189 2.001-3.08 1.26-4.682-.526-1.138-1.277-1.744-3.147-2.542-6.926-2.956-12.89-8.337-16.36-14.765-3.845-7.12-4.814-16.254-2.603-24.54 2.217-8.31 7.374-15.333 14.47-19.709 6.805-4.196 15.902-5.781 23.89-4.163 13.023 2.639 23.147 12.576 25.931 25.453.555 2.563 1.068 3.42 2.457 4.1.914.448 1.24.511 2.1.41 1.291-.154 2.398-.915 3.025-2.084.406-.755.458-1.06.37-2.15-.231-2.844-1.776-7.623-3.736-11.558-2.092-4.199-4.568-7.554-8.146-11.038-6.268-6.102-13.341-9.707-21.86-11.14-2.636-.443-8.352-.54-11.106-.19zm3.334 15.556c-.878.27-2.121 1.562-2.372 2.467-.114.41-.21 1.45-.212 2.31l-.005 1.565-1.413.663c-1.975.927-4.172 3.128-5.124 5.133-3.312 6.98.596 15.117 8.016 16.69.749.159 1.703.29 2.12.292 1.944.009 3.55 1.127 4.017 2.796.762 2.72-1.256 5.216-4.03 4.986-1.392-.115-2.47-.878-3.333-2.357-.938-1.605-1.892-2.195-3.553-2.195-1.54 0-2.49.496-3.3 1.721-.77 1.162-.745 2.945.06 4.44.896 1.665 3.431 4.102 5.102 4.905l1.389.667.082 1.862c.096 2.166.484 3.005 1.792 3.871.66.438 1.009.525 2.09.525 1.082 0 1.432-.088 2.091-.525 1.308-.865 1.696-1.705 1.793-3.87l.083-1.863 1.535-.744c2.707-1.314 4.807-3.896 5.757-7.078.516-1.73.472-4.66-.098-6.55-1.158-3.843-4.114-6.82-7.849-7.903-.585-.17-1.815-.384-2.734-.477-2.02-.203-2.983-.63-3.717-1.643-1.336-1.845-.748-4.635 1.184-5.621 1.146-.585 2.215-.69 3.196-.316.964.368 1.595.991 2.354 2.324.293.516.89 1.172 1.336 1.466.674.447 1.017.534 2.104.534 1.082 0 1.431-.088 2.091-.525 1.22-.808 1.72-1.763 1.72-3.288-.001-1.114-.096-1.44-.765-2.64-1.04-1.863-3.007-3.776-4.749-4.619l-1.367-.661-.08-1.956c-.092-2.248-.465-3.093-1.738-3.936-.838-.555-2.449-.764-3.473-.45zm37.323 30.123c-.925.272-2.126 1.553-2.396 2.557-.484 1.798.31 3.728 1.866 4.542.719.375 1.16.413 5.46.467l4.679.06-5.752 5.758-5.752 5.759H80.237c-6.592.001-10.334.075-10.846.213-.672.182-2.75 2.177-14.812 14.225-7.717 7.708-14.224 14.322-14.46 14.699-.655 1.042-.61 2.983.094 4.048.972 1.47 2.686 2.095 4.46 1.627.801-.211 2.044-1.396 14.267-13.611l13.388-13.38h10.214c8.77 0 10.315-.042 10.94-.302.485-.202 2.872-2.446 7.21-6.778l6.483-6.475.063 4.513.062 4.513.586.83c1.42 2.01 4.251 2.281 5.96.57 1.18-1.18 1.198-1.374 1.133-11.942l-.058-9.5-.524-.792c-.288-.436-.86-1.001-1.27-1.256l-.746-.464-9.771-.035c-5.823-.02-10.03.041-10.413.154zM78.52 93.932c-.907.278-2.128 1.567-2.383 2.516-.14.521-.194 3.326-.157 8.272.051 6.88.085 7.543.425 8.227.469.945 1.338 1.61 2.516 1.925 1.69.452 3.605-.392 4.366-1.925.344-.693.37-1.289.37-8.664v-7.92l-.464-.746c-.922-1.484-2.946-2.213-4.673-1.684zm15.632 0c-.906.278-2.127 1.567-2.382 2.516-.14.521-.194 3.326-.157 8.272.05 6.88.085 7.543.425 8.227.469.945 1.338 1.61 2.516 1.925 1.69.452 3.605-.392 4.366-1.925.344-.693.37-1.289.37-8.664v-7.92l-.464-.746c-.922-1.484-2.947-2.213-4.674-1.684zm15.633 0c-.906.278-2.127 1.567-2.382 2.516-.141.521-.194 3.326-.157 8.272.051 6.88.085 7.543.425 8.227.468.945 1.338 1.61 2.516 1.925 1.69.452 3.605-.392 4.366-1.925.344-.693.369-1.289.369-8.664v-7.92l-.464-.746c-.921-1.484-2.946-2.213-4.673-1.684zm-46.898 11.929c-.929.285-2.127 1.566-2.395 2.56-.313 1.165-.158 3.612.287 4.526.46.942 1.328 1.609 2.51 1.925 1.69.452 3.604-.392 4.365-1.925.289-.58.37-1.174.37-2.7 0-1.718-.056-2.046-.464-2.702-.921-1.483-2.946-2.213-4.673-1.684z" fill="#06FF79"/></g><defs><filter id="filter0_d_585_2027" x="0" y="0" width="130" height="130" filterUnits="userSpaceOnUse" color-interpolation-filters="sRGB"><feFlood flood-opacity="0" result="BackgroundImageFix"/><feColorMatrix in="SourceAlpha" values="0 0 0 0 0 0 0 0 0 0 0 0 0 0 0 0 0 0 127 0" result="hardAlpha"/><feOffset/><feGaussianBlur stdDeviation="7.5"/><feComposite in2="hardAlpha" operator="out"/><feColorMatrix values="0 0 0 0 0.0463889 0 0 0 0 0.695833 0 0 0 0 0.346333 0 0 0 0.8 0"/><feBlend in2="BackgroundImageFix" result="effect1_dropShadow_585_2027"/><feBlend in="SourceGraphic" in2="effect1_dropShadow_585_2027" result="shape"/></filter></defs></svg>
